public/assets/sun.svg

<?xml version="1.0" encoding="UTF-8" standalone="no"?>
<svg
   xmlns:dc="http://purl.org/dc/elements/1.1/"
   xmlns:cc="http://creativecommons.org/ns#"
   xmlns:rdf="http://www.w3.org/1999/02/22-rdf-syntax-ns#"
   xmlns:svg="http://www.w3.org/2000/svg"
   xmlns="http://www.w3.org/2000/svg"
   xmlns:sodipodi="http://sodipodi.sourceforge.net/DTD/sodipodi-0.dtd"
   xmlns:inkscape="http://www.inkscape.org/namespaces/inkscape"
   width="64"
   height="64"
   viewBox="0 0 16.933333 16.933334"
   version="1.1"
   id="svg8"
   inkscape:version="1.0.1 (c497b03c, 2020-09-10)"
   sodipodi:docname="sun_white.svg">
  <defs
     id="defs2">
    <inkscape:path-effect
       effect="skeletal"
       id="path-effect950"
       is_visible="true"
       lpeversion="1"
       pattern="#path938"
       copytype="repeated"
       prop_scale="1"
       scale_y_rel="false"
       spacing="2.7"
       normal_offset="0"
       tang_offset="0"
       prop_units="false"
       vertical_pattern="false"
       hide_knot="false"
       fuse_tolerance="0" />
  </defs>
  <sodipodi:namedview
     id="base"
     pagecolor="#ffffff"
     bordercolor="#666666"
     borderopacity="1.0"
     inkscape:pageopacity="0.0"
     inkscape:pageshadow="2"
     inkscape:zoom="8.0902465"
     inkscape:cx="22.882802"
     inkscape:cy="38.975656"
     inkscape:document-units="mm"
     inkscape:current-layer="layer1"
     inkscape:document-rotation="0"
     showgrid="false"
     units="px"
     inkscape:window-width="1252"
     inkscape:window-height="915"
     inkscape:window-x="15"
     inkscape:window-y="25"
     inkscape:window-maximized="0" />
  <metadata
     id="metadata5">
    <rdf:RDF>
      <cc:Work
         rdf:about="">
        <dc:format>image/svg+xml</dc:format>
        <dc:type
           rdf:resource="http://purl.org/dc/dcmitype/StillImage" />
        <dc:title></dc:title>
      </cc:Work>
    </rdf:RDF>
  </metadata>
  <g
     inkscape:label="Layer 1"
     inkscape:groupmode="layer"
     id="layer1">
    <path
       id="path839"
       style="opacity:0.9;fill:none;stroke:#ffffff;stroke-width:0.79375;stroke-miterlimit:4;stroke-dasharray:none;stroke-opacity:1"
       d="m 11.222978,13.786408 a 5.2085276,5.3197417 0 0 1 -4.5107175,-2.659871 5.2085276,5.3197417 0 0 1 0,-5.3197417 5.2085276,5.3197417 0 0 1 4.5107175,-2.6598708 v 5.3197417 z" />
    <path
       id="path839-5"
       style="opacity:0.9;fill:#ffffff;stroke:#ffffff;stroke-width:0.79375;stroke-miterlimit:4;stroke-dasharray:none;stroke-opacity:1"
       d="m 10.965651,16.710861 c 0.05883,-2.111733 0.04569,-2.112208 0.04569,-2.112208 M 7.8993307,16.045659 C 8.7851438,14.131954 8.7746318,14.127193 8.7746318,14.127193 M 5.3282869,14.281256 C 6.8613344,12.830339 6.8533108,12.82191 6.8533108,12.82191 M 3.6112517,11.655875 C 5.586717,10.919056 5.5825615,10.90803 5.5825615,10.90803 M 3.0227737,8.6009602 c 2.1121127,0.033439 2.1122351,0.022479 2.1122351,0.022479 M 3.5780173,5.5404436 C 5.5294079,6.3386163 5.5337922,6.3277392 5.5337922,6.3277392 M 5.2645041,2.8953563 c 1.4867484,1.498093 1.4949817,1.4898191 1.4949817,1.4898191 m 1.0564631,-3.282772 c 0.8254797,1.9408693 0.8360713,1.936351 0.8360713,1.936351 M 10.87279,0.40206074 c -0.0058,2.11120246 0.0072,2.11102836 0.0072,2.11102836"
       inkscape:path-effect="#path-effect950"
       inkscape:original-d="m 11.011341,15.654975 a 6.9509554,7.0993748 0 0 1 -6.0197046,-3.549687 6.9509554,7.0993748 0 0 1 0,-7.099375 6.9509554,7.0993748 0 0 1 6.0197046,-3.5496873" />
    <path
       style="fill:none;stroke:#000000;stroke-width:0.463021;stroke-linecap:butt;stroke-linejoin:miter;stroke-miterlimit:4;stroke-dasharray:none;stroke-opacity:1"
       d="m 2.3305893,19.623801 c -0.039123,2.112645 -0.039123,2.112645 -0.039123,2.112645 v 0"
       id="path938" />
    <path
       style="fill:none;stroke:#ffffff;stroke-width:0.396875;stroke-linecap:butt;stroke-linejoin:miter;stroke-miterlimit:4;stroke-dasharray:none;stroke-opacity:1"
       d="m 12.204882,2.1173314 c 0.06463,12.6986706 0.06463,12.6986706 0.06463,12.6986706"
       id="path957" />
    <path
       style="fill:none;stroke:#ffffff;stroke-width:0.396875;stroke-linecap:butt;stroke-linejoin:miter;stroke-miterlimit:4;stroke-dasharray:none;stroke-opacity:1"
       d="m 13.281421,1.5882204 c 0.07001,13.7568926 0.07001,13.7568926 0.07001,13.7568926"
       id="path957-8" />
    <path
       style="fill:none;stroke:#ffffff;stroke-width:0.396875;stroke-linecap:butt;stroke-linejoin:miter;stroke-miterlimit:4;stroke-dasharray:none;stroke-opacity:1"
       d="m 14.240608,3.7046654 c 0.04847,9.5240026 0.04847,9.5240026 0.04847,9.5240026"
       id="path957-8-7" />
  </g>
</svg>

<?xml version="1.0" encoding="UTF-8"?>
<svg width="64" height="64" version="1.1" viewBox="0 0 16.933 16.933" xmlns="http://www.w3.org/2000/svg" xmlns:cc="http://creativecommons.org/ns#" xmlns:dc="http://purl.org/dc/elements/1.1/" xmlns:rdf="http://www.w3.org/1999/02/22-rdf-syntax-ns#">
 <metadata>
  <rdf:RDF>
   <cc:Work rdf:about="">
    <dc:format>image/svg+xml</dc:format>
    <dc:type rdf:resource="http://purl.org/dc/dcmitype/StillImage"/>
    <dc:title/>
   </cc:Work>
  </rdf:RDF>
 </metadata>
 <g>
  <path d="m11.223 13.786a5.2085 5.3197 0 0 1-4.5107-2.6599 5.2085 5.3197 0 0 1 0-5.3197 5.2085 5.3197 0 0 1 4.5107-2.6599v5.3197z" fill="none" opacity=".9" stroke="currentColor" stroke-width=".79375"/>
  <path d="m10.966 16.711c0.05883-2.1117 0.04569-2.1122 0.04569-2.1122m-3.112 1.447c0.88581-1.9137 0.8753-1.9185 0.8753-1.9185m-3.4463 0.15406c1.533-1.4509 1.525-1.4593 1.525-1.4593m-3.2421-1.166c1.9755-0.73682 1.9713-0.74784 1.9713-0.74784m-2.5598-2.3071c2.1121 0.033439 2.1122 0.022479 2.1122 0.022479m-1.557-3.083c1.9514 0.79817 1.9558 0.7873 1.9558 0.7873m-0.26929-3.4324c1.4867 1.4981 1.495 1.4898 1.495 1.4898m1.0565-3.2828c0.82548 1.9409 0.83607 1.9364 0.83607 1.9364m2.2208-2.6367c-0.0058 2.1112 0.0072 2.111 0.0072 2.111" fill="currentColor" opacity=".9" stroke="currentColor" stroke-width=".79375"/>
  <g fill="none">
   <path d="m2.3306 19.624-0.039123 2.1126" stroke="currentColor" stroke-width=".46302"/>
   <g stroke="currentColor" stroke-width=".39688">
    <path d="m12.205 2.1173 0.06463 12.699"/>
    <path d="m13.281 1.5882 0.07001 13.757"/>
    <path d="m14.241 3.7047c0.04847 9.524 0.04847 9.524 0.04847 9.524"/>
   </g>
  </g>
 </g>
</svg>
